public/assets/img/icons/paper-airplane-white.svg

<svg width="20" height="20" viewBox="0 0 20 20" fill="none" xmlns="http://www.w3.org/2000/svg">
<path d="M19.9964 0.377472C19.9934 0.354423 19.9899 0.332245 19.983 0.309632C19.9756 0.284844 19.9656 0.262231 19.9543 0.239183C19.9482 0.226571 19.946 0.21309 19.9386 0.200914C19.9338 0.193086 19.926 0.187868 19.9203 0.180475C19.906 0.160471 19.889 0.143076 19.8712 0.125246C19.8534 0.107417 19.8355 0.0908915 19.8151 0.0765407C19.8077 0.0713223 19.8029 0.0639295 19.7955 0.0595807C19.7834 0.0521879 19.7699 0.0504484 19.7573 0.0443603C19.7333 0.0326187 19.7099 0.0226167 19.6846 0.0152239C19.6633 0.00957055 19.6425 0.00652645 19.6207 0.00391722C19.5951 0.000873124 19.5703 -0.000866361 19.5446 0.000438253C19.5207 0.00174287 19.4976 0.00652645 19.4742 0.0121798C19.4594 0.0156587 19.4442 0.0143541 19.4294 0.0195726L0.295036 6.54264C0.121958 6.60091 0.00410755 6.76225 0.000628576 6.94533C-0.00285039 7.12841 0.108477 7.2941 0.279816 7.35976L9.21947 10.7948L13.0824 19.7375C13.1516 19.8971 13.309 19.9997 13.4816 19.9997C13.489 19.9997 13.496 19.9997 13.5034 19.9993C13.6847 19.9902 13.8408 19.8697 13.8961 19.6971L19.9843 0.562727C19.9886 0.549246 19.9873 0.53533 19.9899 0.521414C19.9951 0.497061 19.9991 0.473578 19.9999 0.44879C20.0008 0.424438 19.9995 0.40139 19.9964 0.377472ZM1.71141 6.97795L17.9395 1.44552L9.43821 9.94681L1.71141 6.97795ZM13.4195 18.325L10.0622 10.553L18.6131 2.00172L13.4195 18.325Z" fill="white"/>
<path d="M6.83063 13.169C6.6606 12.999 6.38576 12.999 6.21572 13.169L0.127526 19.2572C-0.0425087 19.4273 -0.0425087 19.7021 0.127526 19.8721C0.212326 19.9569 0.323653 19.9996 0.43498 19.9996C0.546307 19.9996 0.657634 19.9569 0.742434 19.8721L6.83063 13.7839C7.00067 13.6139 7.00067 13.3391 6.83063 13.169Z" fill="white"/>
<path d="M7.95524 16.2135L4.91114 19.2576C4.74111 19.4276 4.74111 19.7024 4.91114 19.8725C4.99594 19.9573 5.10727 19.9999 5.21859 19.9999C5.32992 19.9999 5.44125 19.9573 5.52605 19.8725L8.57015 16.8284C8.74018 16.6583 8.74018 16.3835 8.57015 16.2135C8.40011 16.0434 8.12527 16.0434 7.95524 16.2135Z" fill="white"/>
<path d="M0.43498 15.2162C0.546307 15.2162 0.657634 15.1736 0.742434 15.0888L3.78653 12.0447C3.95657 11.8746 3.95657 11.5998 3.78653 11.4298C3.6165 11.2597 3.34166 11.2597 3.17162 11.4298L0.127526 14.4739C-0.0425087 14.6439 -0.0425087 14.9187 0.127526 15.0888C0.212326 15.1736 0.323653 15.2162 0.43498 15.2162Z" fill="white"/>
</svg>

<svg width="20" height="20" fill="none" xmlns="http://www.w3.org/2000/svg"><path d="M19.996.377a.408.408 0 0 0-.042-.138c-.006-.012-.008-.026-.015-.038-.005-.008-.013-.013-.019-.02a.45.45 0 0 0-.049-.056.426.426 0 0 0-.056-.048c-.007-.006-.012-.013-.02-.017-.012-.008-.025-.01-.038-.016a.453.453 0 0 0-.072-.029.456.456 0 0 0-.21-.003c-.016.004-.03.002-.046.008L.295 6.543a.433.433 0 0 0-.015.817l8.94 3.435 3.862 8.943c.07.16.227.262.4.262h.021a.435.435 0 0 0 .393-.303L19.984.563c.005-.014.003-.028.006-.042a.406.406 0 0 0 .006-.144zM1.711 6.978 17.94 1.446l-8.502 8.5-7.727-2.968zM13.42 18.325l-3.357-7.772 8.551-8.551-5.194 16.323z" fill="#fff"/><path d="M6.83 13.169a.434.434 0 0 0-.614 0L.128 19.257a.434.434 0 1 0 .614.615l6.089-6.088a.434.434 0 0 0 0-.615zM7.955 16.213l-3.044 3.045a.434.434 0 1 0 .615.614l3.044-3.044a.434.434 0 1 0-.615-.614zM.435 15.216a.434.434 0 0 0 .307-.127l3.045-3.044a.434.434 0 1 0-.615-.615L.128 14.474a.434.434 0 0 0 .307.742z" fill="#fff"/></svg>
